assets/symbols/mulberry/perfume.svg

<svg height="850.394" viewBox="0 0 850.394 850.394" width="850.394" xmlns="http://www.w3.org/2000/svg"><path d="m471.62 168.24.11 29.54h-87.11l.21-28.56v-1.67l63.47-.14h23.32zm-102.67 106.26.04-60.9v-2.35h120.02v1.76l.11 61.49z" fill="#ffeec8"/><path d="m567.35 94.54v43.12l-29.76 29.75h-89.29l-63.47.14-64.03.15-29.75-29.75v-43.12l32.77-23.29h150.03l60.72-.28z" fill="#ffeec8"/><path d="m340.39 409.4h175.56v154.49h-175.56z" fill="#0b00ea"/><path d="m543.17 385.46v202.38h-229.99v-202.38zm-27.22 178.43v-154.49h-175.56v154.49z" fill="#ffeec8"/><path d="m640.53 726.97s4.02 52.32-64.4 52.32h-293.99c-68.42 0-64.39-52.32-64.39-52.32v-400.15l56.34-46h310.1l56.34 46zm-97.36-139.13v-202.38h-229.99v202.38z" fill="#ffeec8"/><g fill="none"><g stroke="#000"><path d="m418.6 779.29h157.53c68.42 0 64.4-52.32 64.4-52.32v-400.15l-56.34-46h-310.1l-56.34 46v400.15s-4.03 52.32 64.39 52.32z" stroke-width="20.698"/><path d="m313.18 385.46h229.99v202.38h-229.99z" stroke-width="20.698"/><path d="m340.39 409.4h175.56v154.49h-175.56z" stroke-width="13.799"/><path d="m384.83 167.55 63.47-.14h89.29l29.76-29.75v-43.12l-32.78-23.28-60.72.28h-150.03l-32.77 23.29v43.12l29.75 29.75zm86.79.69.11 29.54h-87.11l.21-28.56" stroke-width="20.698"/><g stroke-linecap="round" stroke-linejoin="round"><path d="m356.89 211.25h144.31" stroke-width="34.496"/><path d="m489.01 213.01.11 61.49h-120.17l.04-60.9" stroke-width="20.698"/></g></g><path d="m0 0h850.394v850.394h-850.394z"/></g></svg>

<svg xmlns="http://www.w3.org/2000/svg" width="850.394" height="850.394" viewBox="0 0 850.394 850.394" overflow="visible"><path fill="#ffeec8" d="M471.62 168.24l.11 29.54h-87.11l.21-28.56v-1.67l63.47-.14h23.32zM368.95 274.5l.04-60.9v-2.35h120.02v1.76l.11 61.49z"/><path fill="#ffeec8" d="M567.35 94.54v43.12l-29.76 29.75H448.3l-63.47.14-64.03.15-29.75-29.75V94.83l32.77-23.29h150.03l60.72-.28z"/><path fill="#0b00ea" d="M340.39 409.4h175.56v154.49H340.39z"/><path d="M543.17 385.46v202.38H313.18V385.46h229.99zm-27.22 178.43V409.4H340.39v154.49h175.56z" fill="#ffeec8"/><path d="M640.53 726.97s4.02 52.32-64.4 52.32H282.14c-68.42 0-64.39-52.32-64.39-52.32V326.82l56.34-46h310.1l56.34 46v400.15zm-97.36-139.13V385.46H313.18v202.38h229.99z" fill="#ffeec8"/><g fill="none" stroke="#000"><path d="M418.6 779.29h157.53c68.42 0 64.4-52.32 64.4-52.32V326.82l-56.34-46h-310.1l-56.34 46v400.15s-4.03 52.32 64.39 52.32H418.6z" stroke-width="20.698"/><path stroke-width="20.698" d="M313.18 385.46h229.99v202.38H313.18z"/><path stroke-width="13.799" d="M340.39 409.4h175.56v154.49H340.39z"/><path stroke-width="20.698" d="M384.83 167.55l63.47-.14H537.59l29.76-29.75V94.54l-32.78-23.28-60.72.28H323.82l-32.77 23.29v43.12l29.75 29.75zM471.62 168.24l.11 29.54h-87.11l.21-28.56"/><path stroke-width="34.496" stroke-linecap="round" stroke-linejoin="round" d="M356.89 211.25H501.2"/><path stroke-width="20.698" stroke-linecap="round" stroke-linejoin="round" d="M489.01 213.01l.11 61.49H368.95l.04-60.9"/></g><path fill="none" d="M0 0h850.394v850.394H0z"/></svg>
